X:1
T:My Hope Is Built
T:My Hope Is Built
T:William Batchelder Bradbury, 1863
T:Edward Mote, 1834
T:Public Domain Courtesy of the Cyber Hymnal™
C:William Batchelder Bradbury, 1863
Z:Public Domain
Z:Courtesy of the Cyber Hymnal™
%%score ( 1 2 ) ( 3 4 )
L:1/8
Q:1/4=110
M:3/4
K:F
V:1 treble 
V:2 treble 
V:3 bass 
V:4 bass 
V:1
 C2 | [CF][CA] [Fc]2 [FA]2 | [FA][EG] [EG]2 [FA]2 | [FB][FB] [FB]2 [DG]2 | [CF][CE] [CF]2 C2 | %5
w: 1.~My|hope is built on|no- thing less Than|Je- sus’ blood and|righ- teous- ness. I|
w: 2.~When|dark- ness seems to|hide His face, I|rest on His un-|chang- ing grace. In|
w: 3.~His|oath, His cov- e-|nant, His blood, Sup-|port me in the|whelm- ing flood. When|
w: 4.~When|He shall come with|trum- pet sound, Oh|may I then in|Him be found. Dressed|
 [CF][CA] [Fc]2 [FA]2 | [FA][EG] [EG]2 [FA]2 | [FB][FB] [FB]2 [DG]2 | [CF][CE] !fermata![CF]2 || %9
w: dare not trust the|sweet- est frame, But|who- lly trust in|Je- sus’ name.|
w: ev- ery high and|storm- y gale, My|an- chor holds with-|in the veil.|
w: all a- round my|soul gives way, He|then is all my|Hope and Stay.|
w: in His right- eous-|ness a- lone, Fault-|less to stand be-|fore the throne.|
"^Refrain" [Fc]2 | [Fc][Ec] [Fc]2 [Fc]2 | [Fd][Fd] [Fd]2 [Fd]2 | [Fc][CA] [CA]2 [CF]2 | %13
w: ||||
w: On|Christ the sol- id|rock I stand, All|o- ther ground is|
w: ||||
w: ||||
 [CA][CA] [CG]2 C2 | [CF][A,F] [DF]2 [CA]2 | [CG][B,G] [A,F]2 |] %16
w: |||
w: sink- ing sand; All|o- ther ground is|sink- ing sand.|
w: |||
w: |||
V:2
 C2 | x6 | x6 | x6 | x6 | x6 | x6 | x6 | x4 || x2 | x6 | x6 | x6 | x6 | x6 | x4 |] %16
V:3
 C,2 | [F,A,][F,A,] [F,A,]2 [F,C]2 | [C,C][C,C] [C,C]2 [F,C]2 | [B,,D][B,,D] [B,,D]2 [B,,B,]2 | %4
 [C,A,][C,G,] [F,A,]2 C,2 | [F,A,][F,A,] [F,A,]2 [F,C]2 | [C,C][C,C] [C,C]2 [F,C]2 | %7
 [B,,D][B,,D] [B,,D]2 [B,,B,]2 | [C,A,][C,G,] !fermata![F,A,]2 || [F,A,]2 | %10
 [F,A,][G,B,] [A,C]2 [F,A,]2 | [B,,B,][B,,B,] [B,,B,]2 [B,,B,]2 | [F,A,]F, F,2 [F,A,]2 | %13
 [F,,F,][A,,F,] [C,E,]2 [C,E,]2 | [A,,F,][F,,F,] [B,,F,]2 [F,,F,]2 | [C,F,][C,E,] [F,,F,]2 |] %16
V:4
 C,2 | x6 | x6 | x6 | x6 | x6 | x6 | x6 | x4 || x2 | x6 | x6 | x F, F,2 x2 | x6 | x6 | x4 |] %16

